X:1
T:Heaven Is My Home, 10.10.12.10.10
T:Heaven Is My Home, 10.10.12.10.10
T:Anthony Johnson Showalter, 1895
T:Public Domain Courtesy of the Cyber Hymnal™
C:Anthony Johnson Showalter, 1895
Z:Public Domain
Z:Courtesy of the Cyber Hymnal™
%%score ( 1 2 ) ( 3 4 )
L:1/8
Q:1/4=110
M:4/4
K:E
V:1 treble 
V:2 treble 
V:3 bass 
V:4 bass 
V:1
 [EG]4 [DF]2 E2 | [EB]3 [Ec] [EB]4 | E4 [DF]2 [EG]2 | [DF]6 z2 | [EG]4 [DF]2 E2 | %5
 [EB]3 [Ec] [EB]4 | E4 [EG]2 [DF]2 | E6 z2 | [EB]4 [Ee]2 [Ed]2 | [Ec]2 [EB]2 [Ec]4 | %10
 [Fc]4 [Ff]2 [Fe]2 | [Fd]2 [Fc]2 [Fd]4 | [Ee]4 [Ed]2 [Ec]2 | [EB]3 [EG] [EB]4 | E4 [DF]2 [DF]2 | %15
 [EG]6 z2 | [Ee]4 [Ed]2 [Ec]2 | [EB]3 [EG] [EB]4 | E4 [EG]2 [DF]2 | E6 z2 |] %20
V:2
 x6 E2 | x8 | E4 x4 | x8 | x6 E2 | x8 | E4 x4 | E6 x2 | x8 | x8 | x8 | x8 | x8 | x8 | E4 x4 | x8 | %16
 x8 | x8 | E4 x4 | E6 x2 |] %20
V:3
 [E,B,]4 [E,A,]2 [E,G,]2 | [E,G,]3 [E,A,] [E,G,]4 | [C,G,]4 [B,,B,]2 [E,B,]2 | [B,,B,]6 z2 | %4
 [E,B,]4 [E,A,]2 [E,G,]2 | [E,G,]3 [E,A,] [E,G,]4 | [C,G,]4 [B,,B,]2 [B,,A,]2 | [E,G,]6 z2 | %8
 [E,G,]4 [G,B,]2 [G,B,]2 | A,2 [E,G,]2 A,4 | [F,^A,]4 [A,C]2 [A,C]2 | B,2 [F,^A,]2 B,4 | %12
 [E,C]4 [E,B,]2 [E,A,]2 | [E,G,]3 [E,B,] [E,G,]4 | [C,G,]4 [B,,B,]2 [B,,B,]2 | [E,B,]6 z2 | %16
 [E,C]4 [E,B,]2 [E,A,]2 | [E,G,]3 [E,B,] [E,G,]4 | [C,G,]4 [B,,B,]2 [B,,A,]2 | [E,G,]6 z2 |] %20
V:4
 x8 | x8 | x8 | x8 | x8 | x8 | x8 | x8 | x8 | A,2 A,4 x2 | x8 | B,2 B,4 x2 | x8 | x8 | x8 | x8 | %16
 x8 | x8 | x8 | x8 |] %20

